X:43
T:Northern Lights 2nd Fiddle
M:3/4
L:1/4
C:Trad.
R:Waltz
K:D
| F/G/|| "D" A2 d| f2 e| "G" d B2| d2 B| "D" A2 d| "E" e2 f| "A" a3| a2A|!
"D" A2 F| "F#" ^A2 A| "G" B G2| "E/G" B2 ^G| "D/A" A3| "A" A2 G| "D" F3|1"G/A"  G2 F/G/ :|2 "D7"  F G A |!
|: "G" B G2 | G3| "D" F3| F2 D| F2 A|"E"  ^G2 d| "A" c3|!
|"A"  c B c| "D" d2 d| f2 d| "G" B G2| "E/G#" B2 ^G| "D/A" A3 | "A" A2 G|1"D"  F3 | "D7" F G A :|2 "D" F A F| D2||
